assets/cam.svg

<svg fill="none" height="24" viewBox="0 0 24 24" width="24" xmlns="http://www.w3.org/2000/svg"><path clip-rule="evenodd" d="m4.49641 3.64645-.06925-.05786-.07624-.04339c-.18448-.08437-.40975-.05062-.56162.10125-.19526.19526-.19526.51184 0 .7071l15 15.00005.0693.0578c.1948.135.4642.1157.6378-.0578.1953-.1953.1953-.5119 0-.7072zm-1.35947 3.43763c.2099-.17943.23461-.49505.05518-.70495s-.49505-.23461-.70495-.05518c-.62545.53465-.98636 1.31701-.98717 2.13984v6.78621l.00565.1709c.09314 1.4699 1.32452 2.6462 2.81434 2.6505h8.21571l.2058-.0073c.342-.0249.6774-.1125.989-.2589.2499-.1174.3573-.4152.2399-.6652-.1175-.2499-.4153-.3573-.6652-.2398-.2406.113-.5032.1715-.769.1712h-8.21477l-.14797-.0065c-.92791-.0791-1.67074-.8691-1.67346-1.8163v-6.78431l.0087-.17565c.0457-.46491.26963-.89801.62824-1.20456zm9.42176-1.44122c1.4783.00456 2.7001 1.17175 2.7928 2.63044l.0056.16956v3.05714c0 .2761-.2238.5-.5.5-.2454 0-.4496-.1769-.4919-.4101l-.0081-.0899v-3.0556c-.0028-.93606-.7369-1.71676-1.6537-1.79509l-.1463-.00645h-2.69996c-.27614 0-.5-.22386-.5-.5 0-.24546.17688-.44961.41013-.49195l.08987-.00805zm8.727.69732c-.17 0-.3381.03568-.4934.10476l-3.777 2.64709c-.3228.22727-.5153.59796-.5153.99277v3.5447c0 .3948.1925.7655.5153.9928l3.6924 2.5991c.2399.117.408.1527.578.1527.668 0 1.2143-.5463 1.2143-1.2143v-8.60534c0-.66797-.5463-1.21428-1.2143-1.21428zm-.0287.98882-.0062.00752.0046.00358.0303.00008c.1157 0 .2143.0986.2143.21428v8.60534c0 .1157-.0986.2143-.2143.2143-.03 0-.0596-.0063-.087-.0185l-3.6078-2.5511c-.0568-.04-.0909-.1056-.0909-.175v-3.5447c0-.0694.0341-.13504.0909-.17504z" fill="#fff" fill-rule="evenodd"/></svg>

<svg width="24" height="24" viewBox="0 0 24 24" fill="none" xmlns="http://www.w3.org/2000/svg">
<path fill-rule="evenodd" clip-rule="evenodd" d="M4.49641 3.64645L4.42716 3.58859L4.35092 3.5452C4.16644 3.46083 3.94117 3.49458 3.7893 3.64645C3.59404 3.84171 3.59404 4.15829 3.7893 4.35355L18.7893 19.3536L18.8586 19.4114C19.0534 19.5464 19.3228 19.5271 19.4964 19.3536C19.6917 19.1583 19.6917 18.8417 19.4964 18.6464L4.49641 3.64645ZM3.13694 7.08408C3.34684 6.90465 3.37155 6.58903 3.19212 6.37913C3.01269 6.16923 2.69707 6.14452 2.48717 6.32395C1.86172 6.8586 1.50081 7.64096 1.5 8.46379V15.25L1.50565 15.4209C1.59879 16.8908 2.83017 18.0671 4.31999 18.0714L12.5357 18.0714L12.7415 18.0641C13.0835 18.0392 13.4189 17.9516 13.7305 17.8052C13.9804 17.6878 14.0878 17.39 13.9704 17.14C13.8529 16.8901 13.5551 16.7827 13.3052 16.9002C13.0646 17.0132 12.802 17.0717 12.5362 17.0714H4.32143L4.17346 17.0649C3.24555 16.9858 2.50272 16.1958 2.5 15.2486L2.5 8.46429L2.5087 8.28864C2.5544 7.82373 2.77833 7.39063 3.13694 7.08408ZM12.5587 5.64286C14.037 5.64742 15.2588 6.81461 15.3515 8.2733L15.3571 8.44286V11.5C15.3571 11.7761 15.1333 12 14.8571 12C14.6117 12 14.4075 11.8231 14.3652 11.5899L14.3571 11.5L14.3571 8.4444C14.3543 7.50834 13.6202 6.72764 12.7034 6.64931L12.5571 6.64286H9.85714C9.581 6.64286 9.35714 6.419 9.35714 6.14286C9.35714 5.8974 9.53402 5.69325 9.76727 5.65091L9.85714 5.64286L12.5587 5.64286ZM21.2857 6.34018C21.1157 6.34018 20.9476 6.37586 20.7923 6.44494L17.0153 9.09203C16.6925 9.3193 16.5 9.68999 16.5 10.0848V13.6295C16.5 14.0243 16.6925 14.395 17.0153 14.6223L20.7077 17.2214C20.9476 17.3384 21.1157 17.3741 21.2857 17.3741C21.9537 17.3741 22.5 16.8278 22.5 16.1598V7.55446C22.5 6.88649 21.9537 6.34018 21.2857 6.34018ZM21.257 7.329L21.2508 7.33652L21.2554 7.3401L21.2857 7.34018C21.4014 7.34018 21.5 7.43878 21.5 7.55446V16.1598C21.5 16.2755 21.4014 16.3741 21.2857 16.3741C21.2557 16.3741 21.2261 16.3678 21.1987 16.3556L17.5909 13.8045C17.5341 13.7645 17.5 13.6989 17.5 13.6295V10.0848C17.5 10.0154 17.5341 9.94976 17.5909 9.90976L21.257 7.329Z" fill="white"/>
</svg>
